X: 7691
T: Colin Clachair
R: reel
M: 4/4
K: Dmajor
DFAd BGBd|ADFA EA,CE|DFAd BGBd|ceAc d2d2:|
fedf eAce|dcdB ADFA|fedf eAce|dcBA d2d2|
fedf eAce|dcdB ADFA|GFGB AFdB|Adce d2d2||

